**kern	**kern	**dynam
*part1	*part1	*part1
*staff2	*staff1	*
*I"Piano	*	*
*clefF4	*clefG2	*
*k[b-e-a-d-]	*k[b-e-a-d-]	*
=1	=1	=1
2.r	4d- 4f	<
.	4d- 4f	.
.	4d- 4f	.
=	=	=
([2.B-	4d- 4a-	.
.	4d- 4g	[
.	4d- 4f	.
=	=	=
2E-) 2B-]	4d- 4a-	.
.	4d- 4g	.
((4BB- 4A-	[4d- [4f	.
=	=	=
*	*^	*
2E-)) 2G	8fL]	2d-]	.
.	(8f	.	.
.	8cc	.	.
.	8b-	.	.
4D- 4G	8f	4r	.
.	[8e-J)	.	.
*	*v	*v	*
=	=	=
!	!LO:TX:b:i:t=più cresc.	!
([2.C 2.G	4e-] 4ee-	.
.	4e- 4dd-	.
.	4e- 4cc	.
=	=	=
2.C]) 2.A-	4en 4b-	.
.	4e 4b-	.
.	4e 4a-	.
=	=	=
2.D- 2.A-	4f 4ff	mf
.	4f 4ee-	.
.	4f 4dd-	.
=	=	=
*-	*-	*-
!!!system-decoration: {(s1,s2)}
